!!!!SEGMENT: pl-sa--82-a-ii-22--003_anonim--missa-ex-f-patrem.krn
!!!cenid: 17xx:1533
!!!COM: Anonim
!!!COM-rismID: pe30004985
!!!CDT:
!!!CNT:
!!!OPR: Missa ex F
!!!OTL: Patrem
!!!OMV: 003
!!!PDT:
!!!AGN: Sacred; Mass
!!!SMS-siglum: PL-SA
!!!SMS-shelfmark: 82/A II 22
!!!SMS-shelfwork: 001-003 M
!!!SMS-variant:
!!!SMS-altvar:
!!!NIFC-rismSourceID: 1001035461
!!!NIFC-islandoraID:
!!!URL-pdf-islandora:
!!!URL-scan: https://bc.bdsandomierz.pl/dlibra/publication/1360/edition/1328/content @EN{Scan in the Sandomierz Diocese Digital Library} @PL{Skany w portalu Cyfrowa Biblioteka Diecezjalna w Sandomierzu}
!!!ONB-nifc: UWAGA: części Mszy: 1. Kyrie, 2. Gloria, 3. Patrem, 4. Sanctus, 5. Benedictus, 6. Agnus Dei
!!!AIN: 1 cbass 2 soprn 2 violn
!!!key: F
**kern	**kern	**kern	**dynam	**kern	**text	**kern	**text
*part5	*part4	*part3	*part3	*part2	*part2	*part1	*part1
*staff5	*staff4	*staff3	*	*staff2	*staff2	*staff1	*staff1
*group	*group2	*group2	*group2	*group1	*group1	*group1	*group1
*I"Baſso.	*I"Violino 2do	*I"Violino Primo	*	*I"Canto 2do.	*	*I"Canto	*
*I'b	*I'vl 2	*I'vl 1	*	*I'S 2	*	*I'S 1	*
*Icbass	*Ivioln	*Ivioln	*	*Isoprn	*	*Isoprn	*
*ICstr	*ICstr	*ICstr	*	*ICvox	*	*ICvox	*
*clefF4	*clefG2	*clefG2	*	*clefC1	*	*clefC1	*
*k[b-]	*k[b-]	*k[b-]	*	*k[b-]	*	*k[b-]	*
*F:	*F:	*F:	*	*F:	*	*F:	*
*M2/2	*M2/2	*M2/2	*	*M2/2	*	*M2/2	*
*met(c|)	*met(c|)	*met(c|)	*	*met(c|)	*	*met(c|)	*
=1	=1	=1	=1	=1	=1	=1	=1
*2\right	*	*	*	*	*	*	*
!LO:TX:t=P:problem=oznaczenie metryczne obrócone alla breve	!LO:TX:t=P:problem=oznaczenie metryczne obrócone alla breve	!LO:TX:t=P:problem=oznaczenie metryczne obrócone alla breve	!	!LO:TX:t=P:problem=oznaczenie metryczne obrócone alla breve	!	!LO:TX:t=P:problem=oznaczenie metryczne obrócone alla breve	!
!LO:TX:a:i:t=allabr.	!LO:TX:a:i:t=allabr.	!LO:TX:a:i:t=alabr.	!	!LO:TX:a:i:t=allabr.	!	!LO:TX:a:i:t=allabr.	!
2F\	2A/	2f/	.	2f/	Pa-	2f/	Pa-
2F\	2A/	2f/	.	2f/	-trem	2f/	-trem
=2	=2	=2	=2	=2	=2	=2	=2
2C/	2c/	2g/	.	2e/	om-	2g/	om-
2C/	2c/	2g/	.	2e/	-ni-	2g/	-ni-
=3	=3	=3	=3	=3	=3	=3	=3
*	*	*2\right	*	*2\right	*	*2\right	*
2F\	2f/	2a/	.	2f/	-po-	2a\	-po-
2C/	2g/	2b-/	.	2g/	-ten-	2b-\	-ten-
=4	=4	=4	=4	=4	=4	=4	=4
4F\	2a/	2cc\	.	2a\	-tem	2cc\	-tem
4C/	.	.	.	.	.	.	.
4AA/	2rg	2r	.	2r	.	2r	.
4FF/	.	.	.	.	.	.	.
=5	=5	=5	=5	=5	=5	=5	=5
2F\	2a/	2cc\	.	2a\	fac-	2cc\	fac-
2F\	4b-/	4dd\	.	4b-\	-to-	4dd\	-to-
.	4a/	4cc\	.	4a\	-rem	4cc\	-rem
=6	=6	=6	=6	=6	=6	=6	=6
!	!	!	!	!	!	!LO:SIC:v:l:s=Cae-	!
2C/	2g/	2b-\	.	2g/	Cae-	2b-\	Cael-
2C/	2g/	2b-\	.	2g/	-li	2b-\	-li
=7	=7	=7	=7	=7	=7	=7	=7
2F\	2f/	2a/	.	2f/	et	2a\	et
2r	2f/	2a/	.	2f/	ter-	2a\	ter-
=8	=8	=8	=8	=8	=8	=8	=8
4C\	2e/	2g/	.	2e/	-rae	2g\	-rae
4E\	.	.	.	.	.	.	.
4G\	2rg	2rg	.	2re	.	2r	.
4c\	.	.	.	.	.	.	.
!	!	!	!	!	!	!LO:LB:g=original	!
=9	=9	=9	=9	=9	=9	=9	=9
2F\	2a/	2ff\	.	2a\	vi-	2ff\	vi-
2F\	2a/	2cc\	.	2a\	-si-	2cc\	-si-
!	!	!	!	!LO:LB:g=original	!	!	!
=10	=10	=10	=10	=10	=10	=10	=10
2F\	2b-/	2dd\	.	2b-\	-bi-	2dd\	-bi-
2F\	2a/	2cc\	.	2a\	-lium	2cc\	-lium
=11	=11	=11	=11	=11	=11	=11	=11
2G\	4b-/	4dd\	.	4b-\	O-	4dd\	O-
.	4a/	4cc\	.	4a\	.	4cc\	.
2E\	4b-/	4dd\	.	4b-\	.	4dd\	.
.	4g/	4ee\	.	4cc\	-mni-	4ee\	-mni-
=12	=12	=12	=12	=12	=12	=12	=12
2F\	2a/	2ff\	.	2a\	-um	2ff\	-um
2r	2rg	2r	.	2r	.	2r	.
!	!LO:LB:g=original	!LO:LB:g=original	!	!	!	!	!
=13	=13	=13	=13	=13	=13	=13	=13
2F\	2a/	2ff\	.	2a\	et	2ff\	et
2F\	2a/	2cc\	.	2a\	in-	2cc\	in-
=14	=14	=14	=14	=14	=14	=14	=14
2G\	2b-/	2dd\	.	2b-\	-vi-	2dd\	-vi-
2E\	2g/	2b-\	.	2g\	-si-	2b-\	-si-
!LO:LB:g=original	!	!	!	!	!	!	!
=15	=15	=15	=15	=15	=15	=15	=15
2F\	2f/	2a/	.	2f/	-bi-	2a\	-bi-
2C/	2c/	2g/	.	2e/	-li-	2g\	-li-
=16	=16	=16	=16	=16	=16	=16	=16
4FF/	2A/	2f/	.	2f/	-um	2f/	-um
4AA/	.	.	.	.	.	.	.
4C/	2re	2rg	.	2r	.	2re	.
4F/	.	.	.	.	.	.	.
=17	=17	=17	=17	=17	=17	=17	=17
!	!	!	!	!LO:TX:a:t=4	!	!	!
4F\	4A/	4f/	.	00r	.	4f/	et
4r	4G/	4e/	.	.	.	4e/	.
2r	4A/	4f/	.	.	.	4f/	in
.	4B-/	4g/	.	.	.	4g/	.
!	!	!	!	!	!	!LO:LB:g=original	!
=18	=18	=18	=18	=18	=18	=18	=18
!	!	!	!	!	!	!LO:SIC:v:l:s=u-	!
2F\	2f/	2a/	.	.	.	2a\	un-
2F\	2A/	2f/	.	.	.	2f/	-num
=19	=19	=19	=19	=19	=19	=19	=19
4C/	2c/	2e/	.	.	.	2e/	Do-
4c\	.	.	.	.	.	.	.
4G\	2d/	2f/	.	.	.	2f/	-mi-
4E\	.	.	.	.	.	.	.
=20	=20	=20	=20	=20	=20	=20	=20
4C/	2e/	2g/	.	.	.	2g/	-num
4D/	.	.	.	.	.	.	.
4E/	2rg	2rg	.	.	.	2r	.
4C/	.	.	.	.	.	.	.
=21	=21	=21	=21	=21	=21	=21	=21
4C/	4e/	4g/	.	4e/	Je-	4g/	Je-
4r	4d/	4f/	.	4d/	.	4f/	.
2r	4e/	4g/	.	4e/	-sum	4g/	.
.	4f/	4a/	.	4f/	.	4a/	.
=22	=22	=22	=22	=22	=22	=22	=22
*	*	*	*	*	*ij	*	*
2E\	2g/	2b-/	.	2g/	Je-	2b-\	.
2C/	2e/	2g/	.	2e/	-sum	2g\	-sum
*	*	*	*	*	*Xij	*	*
!	!	!	!	!LO:LB:g=original	!	!	!
=23	=23	=23	=23	=23	=23	=23	=23
2F\	2f/	2a/	.	2f/	Chri-	2a\	Chri-
2C/	2g/	2b-/	.	2g/	.	2b-\	.
=24	=24	=24	=24	=24	=24	=24	=24
2F\	2a/	2cc\	.	2a\	-stum	2cc\	-stum.
2r	2rg	2r	.	2r	.	2r	.
=25	=25	=25	=25	=25	=25	=25	=25
!	!	!	!	!	!	!LO:SIC:v:l:s=Fi-	!
2F\	2a/	2cc\	.	2a\	Fi-	2cc\	Fil-
2F\	2a/	2cc\	.	2a\	-lium	2cc\	-lium
!	!LO:LB:g=original	!	!	!	!	!	!
=26	=26	=26	=26	=26	=26	=26	=26
2F\	4a/	4cc\	.	4a\	De-	4cc\	De-
.	4g/	4b-\	.	4g\	.	4b-\	.
2r	2f/	2a/	.	2f/	-j	2a\	-j
!	!	!LO:PB:g=original	!	!	!	!LO:LB:g=original	!
=27	=27	=27	=27	=27	=27	=27	=27
2G\	4g/	4b-\	.	4g\	u-	4b-\	u-
.	4a/	4cc\	.	4a\	-ni-	4cc\	-ni-
2E\	4b-/	4dd\	.	4b-\	-ge-	4dd\	-ge-
.	4a/	4cc\	.	4a\	-ni-	4cc\	-ni-
=28	=28	=28	=28	=28	=28	=28	=28
2C/	2g/	2b-\	.	2g\	-tum	2b-\	-tum
2rBB	2rg	2rg	.	2r	.	2r	.
!LO:LB:g=original	!	!	!	!	!	!	!
=29	=29	=29	=29	=29	=29	=29	=29
2C/	2g/	2b-\	.	2g/	Fi-	2b-\	Fil-
2C/	2g/	2b-\	.	2g/	-lium	2b-\	-lium
=30	=30	=30	=30	=30	=30	=30	=30
2C/	4g/	4b-/	.	4g/	De-	4b-\	De-
.	4f/	4a/	.	4f/	.	4a\	.
2rBB	2e/	2g/	.	2e/	-j	2g/	-j
=31	=31	=31	=31	=31	=31	=31	=31
2F\	4f/	4a/	.	4f/	u-	4a\	u-
.	4g/	4b-/	.	4g/	-ni-	4b-\	-ni-
2C/	4a/	4cc/	.	4a/	-ge-	4cc\	-ge-
.	4g/	4b-/	.	4g/	-ni-	4b-\	-ni-
!	!	!	!	!LO:LB:g=original	!	!	!
=32	=32	=32	=32	=32	=32	=32	=32
2FF/	2f/	2a/	.	2f/	-tum	2a\	-tum
2rBB	2rg	2rg	.	2re	.	2r	.
=33	=33	=33	=33	=33	=33	=33	=33
!	!	!	!LO:DY:b:t=p.	!	!	!	!
4r	4f/	4a/	p	4f/	et	4a\	et
4F\	4a/	4cc/	.	4a\	ex	4cc\	ex
4F\	4a/	4cc/	.	4a\	pa-	4cc\	pa-
4F\	4a/	4cc/	.	4a\	-tre	4cc\	-tre
=34	=34	=34	=34	=34	=34	=34	=34
4r	4.b-/	4.dd\	.	4.b-\	na-	4.dd\	na-
4F\	.	.	.	.	.	.	.
.	8a/	8cc\	.	8a\	-tum	8cc\	-tum
4F\	4a/	4cc\	.	4a\	an-	4cc\	an-
4F\	4a/	4cc\	.	4a\	-te	4cc\	-te
!	!	!	!	!	!	!LO:LB:g=original	!
=35	=35	=35	=35	=35	=35	=35	=35
4r	8a/L	8cc\L	.	8a\L	om-	8cc\L	om-
.	8g/J	8b-\J	.	8g\J	-ni-	8b-\J	-ni-
4C/	4g/	4b-\	.	4g\	-a	4b-\	-a
4C/	4r	4r	.	2r	.	2r	.
4C/	4g/	4b-\	.	.	.	.	.
!	!LO:LB:g=original	!	!	!	!	!	!
=36	=36	=36	=36	=36	=36	=36	=36
4r	8g/L	8b-/L	.	8g/L	Sae-	8b-\L	ſae-
.	8f/J	8a/J	.	8f/J	-cu-	8a\J	-cu-
4FF/	4f/	4a/	.	4f/	-la	4a\	-la
4FF/	4r	4r	.	2r	.	2r	.
4FF/	4f/	4a/	.	.	.	.	.
!	!	!LO:LB:g=original	!	!	!	!	!
=37	=37	=37	=37	=37	=37	=37	=37
4r	4e/	4g/	.	4e/	De-	4g\	De-
4C\	8e/L	8g/L	.	8e/	-um	8g\	-um
.	8g/J	8b-/J	.	8g/	de	8b-\	de
4E\	4f/	4a/	.	4f/	De-	4a\	De-
4C\	4e/	4g/	.	4e/	-o	4g\	-o
=38	=38	=38	=38	=38	=38	=38	=38
*	*	*	*	*	*	*	*ij
4r	4f/	4a/	.	4f/	De-	4a\	De-
4F\	8f/L	8a/L	.	8f/L	-um	8a\	-um
.	8a/J	8cc/J	.	8a/J	de	8cc\	de
!	!	!	!	!LO:LB:g=original	!	!	!
4A\	4g/	4b-/	.	4g/	De-	4b-\	De-
4F\	4f/	4a/	.	4f/	-o	4a\	-o
*	*	*	*	*	*	*	*Xij
=39	=39	=39	=39	=39	=39	=39	=39
4G\	4b-\	4dd\	.	4b-\	ve-	4dd\	ve-
4r	4a\	4cc\	.	4a\	.	4cc\	.
4r	4b-\	4dd\	.	4b-\	.	4dd\	.
4E\	4g\	4ee\	.	4g\	.	4ee\	.
=40	=40	=40	=40	=40	=40	=40	=40
2F\	2a/	2ff\	.	2a\	-ro	2ff\	-ro
2r	2f/	2f/	.	2r	.	2r	.
!LO:LB:g=original	!	!	!	!	!	!	!
=41	=41	=41	=41	=41	=41	=41	=41
!	!	!	!	!LO:TX:a:t=8	!	!LO:TX:a:t=8.	!
4r	(<8A/L	8f/L	.	00r	.	00r	.
.	8G/	8e/	.	.	.	.	.
4F\	8A/	8f/	.	.	.	.	.
.	8B-/J)	8g/J	.	.	.	.	.
4F\	4c/	4a/	.	.	.	.	.
4F\	4A/	4f/	.	.	.	.	.
=42	=42	=42	=42	=42	=42	=42	=42
4r	4.g/	4.b-/	.	.	.	.	.
4G\	.	.	.	.	.	.	.
.	8f/	8a/	.	.	.	.	.
4E\	8f/L	8a/L	.	.	.	.	.
.	8e/J	8g/J	.	.	.	.	.
4C\	4e/	4g/	.	.	.	.	.
=43	=43	=43	=43	=43	=43	=43	=43
4r	(<8e/L	8g/L	.	.	.	.	.
.	8d/	8f/	.	.	.	.	.
4C/	8e/	8g/	.	.	.	.	.
.	8f/J)	8a/J	.	.	.	.	.
4C/	4g/	4b-/	.	.	.	.	.
4C/	4e/	4g/	.	.	.	.	.
!	!LO:LB:g=original	!	!	!	!	!	!
=44	=44	=44	=44	=44	=44	=44	=44
4r	4.a/	4.cc\	.	.	.	.	.
4F\	.	.	.	.	.	.	.
.	8g/	8b-\	.	.	.	.	.
4C/	8g/L	8b-/L	.	.	.	.	.
.	8f/J	8a/J	.	.	.	.	.
4FF/	4f/	4a/	.	.	.	.	.
!	!	!LO:LB:g=original	!	!	!	!	!
=45	=45	=45	=45	=45	=45	=45	=45
4r	2a/	8cc\L	.	00r	.	00r	.
.	.	8ff\J	.	.	.	.	.
!	!	!LO:TX:t=P:global:problem=niejednoznaczny zapis ozdobnika [przyjęto trillo]	!	!	!	!	!
!	!	!LO:TX:a:B:t=t	!	!	!	!	!
4A\	.	4ff\	.	.	.	.	.
4r	2b-/	8dd\L	.	.	.	.	.
.	.	8ff\J	.	.	.	.	.
!	!	!LO:TX:a:B:t=t	!	!	!	!	!
4B-\	.	4ff\	.	.	.	.	.
=46	=46	=46	=46	=46	=46	=46	=46
4r	2a/	8cc\L	.	.	.	.	.
.	.	8ff\J	.	.	.	.	.
!	!	!LO:TX:a:B:t=t	!	!	!	!	!
4A\	.	4ff\	.	.	.	.	.
4r	2b-/	8dd\L	.	.	.	.	.
.	.	8ff\J	.	.	.	.	.
!	!	!LO:TX:a:B:t=t	!	!	!	!	!
4B-\	.	4ff\	.	.	.	.	.
=47	=47	=47	=47	=47	=47	=47	=47
4A\	8cc\L	8aa\L	.	.	.	.	.
.	8a\	8ff\	.	.	.	.	.
4B-\	8dd\	8bb-\	.	.	.	.	.
.	8b-\J	8gg\J	.	.	.	.	.
4c\	4a/	4ff\	.	.	.	.	.
4C/	4g/	4ee\	.	.	.	.	.
=48	=48	=48	=48	=48	=48	=48	=48
8F\L	2a/	2ff\	.	.	.	.	.
8C\	.	.	.	.	.	.	.
8AA\	.	.	.	.	.	.	.
8C\J	.	.	.	.	.	.	.
4FF/	2rg	2r	.	.	.	.	.
4r	.	.	.	.	.	.	.
!	!	!	!	!	!	!LO:LB:g=original	!
=49	=49	=49	=49	=49	=49	=49	=49
!	!	!	!LO:DY:b	!	!	!	!
2F\	2.a/	2.cc\	p	2a\	qui	2cc\	qui
2r	.	.	.	4a\	pro-	4cc\	pro-
.	4g/	4b-\	.	4g\	-pter	4b-\	-pter
=50	=50	=50	=50	=50	=50	=50	=50
4r	4f/	4a\	.	4f/	nos	4a\	nos
4F\	8dd\L	8ff\L	.	4r	.	4r	.
.	8cc\J	8ee\J	.	.	.	.	.
4F\	8b-/L	8dd\L	.	2r	.	2r	.
.	8a/	8cc\	.	.	.	.	.
!LO:TX:a:t=f	!	!	!	!	!	!	!
4F\	8g/	8b-\	.	.	.	.	.
.	8f/J	8a\J	.	.	.	.	.
!LO:LB:g=original	!	!	!	!	!	!	!
=51	=51	=51	=51	=51	=51	=51	=51
2C/	2g/	2b-\	.	2g\	nos	2b-\	nos
2rBB	4g/	4b-\	.	4g/	ho-	4b-\	ho-
.	4f/	4a\	.	4f/	-mi-	4a\	-mi-
=52	=52	=52	=52	=52	=52	=52	=52
4r	4e/	4g/	.	4e/	-nes	4g\	-nes
4C/	8ee\L	8gg\L	.	4r	.	4r	.
.	8dd\J	8ff\J	.	.	.	.	.
4C/	8cc\L	8ee\L	.	2re	.	2re	.
.	8b-\	8dd\	.	.	.	.	.
4C/	8a\	8cc\	.	.	.	.	.
.	8g\J	8b-\J	.	.	.	.	.
!	!LO:LB:g=original	!	!	!	!	!	!
=53	=53	=53	=53	=53	=53	=53	=53
4F\	2f/	2a/	.	2f/	et	2a\	et
4F\	.	.	.	.	.	.	.
4F\	4f/	4a/	.	4f/	pro-	4a\	pro-
4F\	4f/	4a/	.	4f/	-pter	4a\	-pter
!	!	!LO:LB:g=original	!	!	!	!	!
=54	=54	=54	=54	=54	=54	=54	=54
!	!	!	!	!LO:SIC:v:l:s=no-	!	!	!
4E\	2g/	2b-/	.	2g/	nos-	2b-\	no-
4E\	.	.	.	.	.	.	.
!	!	!	!	!LO:LB:g=original	!	!	!
4E\	4e/	4g/	.	4e/	-ſtram	4g\	-stram
4E\	4g/	4b-/	.	4g/	Sa-	4b-\	ſa-
=55	=55	=55	=55	=55	=55	=55	=55
4F\	4f/	4a/	.	4f/	-lu-	4a\	-lu-
4C/	4e/	4g/	.	4e/	-tem	4g\	-tem,
2rBB	2rg	2rg	.	2re	.	2re	.
=56	=56	=56	=56	=56	=56	=56	=56
2F\	4a/	4cc\	.	4a/	de-	4cc\	de-
.	4g/	4b-\	.	4g/	.	4b-\	.
2r	4f/	4a\	.	4f/	-scen-	4a\	-scen-
.	4b-/	4dd\	.	4b-\	-dit	4dd\	-dit
!	!	!	!	!	!	!LO:LB:g=original	!
=57	=57	=57	=57	=57	=57	=57	=57
2F\	4a/	4cc\	.	4a\	de-	4cc\	de-
.	4g/	4b-\	.	4g\	.	4b-\	.
2r	4f/	4a\	.	4f\	-scen-	4a\	-scen-
.	4b-/	4dd\	.	4b-\	-dit	4dd\	-dit
=58	=58	=58	=58	=58	=58	=58	=58
8F\L	2f/	2a/	.	2f/	de	2a\	de
8A\	.	.	.	.	.	.	.
8c\	.	.	.	.	.	.	.
8F\J	.	.	.	.	.	.	.
!	!	!	!	!	!	!LO:SIC:v:l:s=Cae-	!
8C/L	2c/	2g/	.	2e/	Cae-	2g\	Cael-
8E/	.	.	.	.	.	.	.
8G/	.	.	.	.	.	.	.
8E/J	.	.	.	.	.	.	.
=59	=59	=59	=59	=59	=59	=59	=59
2F\	2A/	2f/	.	2f/	-lis	2f/	-lis
2r	2re	2rg;>	.	2re	.	2re	.
!LO:LB:g=original	!	!	!	!	!	!	!
=60||;	=60||	=60||	=60||	=60||	=60||	=60||	=60||
*k[b-e-]	*k[b-e-]	*k[b-e-]	*	*k[b-e-]	*	*k[b-e-]	*
*M3/4	*M3/4	*M3/4	*	*M3/4	*	*M3/4	*
!LO:TX:b:i:t=Et in Carnatus	!LO:TX:b:i:t=Et in carnatus	!LO:TX:b:i:t=Et in Carnatus	!	!	!	!LO:TX:t=P:problem=kolejność znaków b- ee- 	!
!LO:TX:a:i:t=Ada.	!LO:TX:a:i:t=Adagio	!LO:TX:a:i:t=Adagio	!	!LO:TX:a:i:t=ada	!	!LO:TX:a:i:t=adagio	!
8BB-/L	4d/	4b-\	.	4d/	Et	4b-\	Et
8D/	.	.	.	.	.	.	.
8F/	4d/	4b-\	.	4d/	in-	4b-\	in-
8B-/J	.	.	.	.	.	.	.
8d\L	4d/	4b-\	.	4d/	-car-	4b-\	-car-
8B-\J	.	.	.	.	.	.	.
=61	=61	=61	=61	=61	=61	=61	=61
8r	8d/L	8bn\L	.	8d/L	-na-	8bn\L	-na-
8F\L	8e-/J	8cc\J	.	8e-/J	-tus	8cc\J	-tus
8A\	2e-;>/	2cc;>\	.	2e-;/	est	2cc;>\	eſt.
8c\J	.	.	.	.	.	.	.
4F\;>	.	.	.	.	.	.	.
!	!	!	!	!LO:LB:g=original	!	!	!
=62	=62	=62	=62	=62	=62	=62	=62
8FF/L	4a/	4cc\	.	4a\	et	4cc\	et
8FF/	.	.	.	.	.	.	.
8AA/	4a/	4cc\	.	4a\	in-	4cc\	in-
8C/	.	.	.	.	.	.	.
8E-/	4a/	4cc\	.	4a\	-car-	4cc\	-car-
8C/J	.	.	.	.	.	.	.
!	!LO:LB:g=original	!	!	!	!	!	!
=63	=63	=63	=63	=63	=63	=63	=63
8r	8a\L	8cc#X\L	.	8a\L	-na-	8cc#X\L	-na-
8BB-/L	8b-\J	8dd\J	.	8b-\J	-tus	8dd\J	-tus
*	*2\right	*	*	*	*	*	*
8D/	2b-;>\	2dd;>\	.	2b-;\	est	2dd;>\	eſt
8F/J	.	.	.	.	.	.	.
4BB-;>/	.	.	.	.	.	.	.
!	!	!LO:LB:g=original	!	!	!	!LO:LB:g=original	!
=64	=64	=64	=64	=64	=64	=64	=64
4BB-/	4dd\	4ff\	.	4dd\	De	4ff\	De
4B-\	4dd\	4ff\	.	4dd\	Spi-	4ff\	Spi-
4r	8cc\L	8ee-\L	.	8cc\L	-ri-	8ee-\L	-ri-
.	8b-\J	8dd\J	.	8b-\J	-tu	8dd\J	-tu
=65	=65	=65	=65	=65	=65	=65	=65
!	!	!	!	!	!	!LO:TX:a:t=d	!
8r	8b-\L	8dd\L	.	8b-\L	San-	8dd\L	San-
8F\	8a\J	8cc\J	.	8a\J	.	8ccn\J	.
*tremolo	*	*	*	*	*	*	*
8F\L	2a/	2cc\	.	2a\	-cto	2cc\	-cto.
8F\	.	.	.	.	.	.	.
8F\	.	.	.	.	.	.	.
8F\J	.	.	.	.	.	.	.
*Xtremolo	*	*	*	*	*	*	*
=66	=66	=66	=66	=66	=66	=66	=66
4F\	8cc\L	8ee-\L	.	8cc\	Ex	8ee-\	Ex
.	8cc\J	8ee-\J	.	8cc\	Ma-	8ee-\	Ma-
4r	4cc\	4ee-\	.	4cc\	-ri-	4ee-\	-ry-
4r	4b-\	4dd\	.	4b-\	-a	4dd\	-a
=67	=67	=67	=67	=67	=67	=67	=67
8r	8b-/L	8dd\L	.	8b-\L	Vir-	8dd\L	Vir-
8F\	8a/J	8cc\J	.	8a\J	-gi-	8cc\J	-gi-
*tremolo	*	*	*	*	*	*	*
8F\L	2a/	2cc\	.	2a\	-ne	2cc\	-ne
8F\	.	.	.	.	.	.	.
8F\	.	.	.	.	.	.	.
8F\J	.	.	.	.	.	.	.
*Xtremolo	*	*	*	*	*	*	*
=68	=68	=68	=68	=68	=68	=68	=68
4B-\	8dd\L	8ff\L	.	8dd\	ex	8ff\	ex
.	8dd\J	8ff\J	.	8dd\	Ma-	8ff\	Ma-
!	!	!	!	!LO:LB:g=original	!	!	!
4r	4dd\	4ff\	.	4dd\	-ri-	4ff\	-ry-
4r	4cc\	4ee-\	.	4cc\	-a	4ee-\	-a
!LO:LB:g=original	!	!	!	!	!	!	!
=69	=69	=69	=69	=69	=69	=69	=69
8r	8cc\L	8ee-\L	.	8cc\L	Vir-	8ee-\L	Vir-
8BB-/L	8b-\J	8dd\J	.	8b-\J	-gi-	8dd\J	-gi-
8D/	2b-\	2dd\	.	2b-\	-ne	2dd\	-ne
8F/J	.	.	.	.	.	.	.
!LO:TX:t=P:problem=mixed beam	!	!	!	!	!	!	!
8B-\L	.	.	.	.	.	.	.
8BB-/J	.	.	.	.	.	.	.
!	!	!	!	!	!	!LO:LB:g=original	!
=70	=70	=70	=70	=70	=70	=70	=70
4BB-/	8dd\L	8ff\L	.	8dd\L	et	8ff\L	et
.	8cc\	8ee-\	.	8cc\J	.	8ee-\J	.
4r	8b-\	8dd\	.	8b-\L	ho-	8dd\L	ho-
.	8dd\	8ff\	.	8dd\J	.	8ff\J	.
4r	8cc\	8ee-\	.	8cc\L	-mo	8ee-\L	-mo
.	8b-\J	8dd\J	.	8b-\J	.	8dd\J	.
=71	=71	=71	=71	=71	=71	=71	=71
8r	8cc\L	8ee-\L	.	8cc\L	fa-	8ee-\	fa-
8D\	8a\J	8cc\J	.	8a\J	-ctus	8cc\	-ctus
4G\	2b-\	2dd\	.	2b-\	eſt	2dd\	eſt.
4GG/	.	.	.	.	.	.	.
=72	=72	=72	=72	=72	=72	=72	=72
!	!	!	!	!LO:TX:a:t=2	!	!	!
4GG/	2b-\	2dd\	.	1.r	.	2dd\	Cru-
4r	.	.	.	.	.	.	.
4r	4a/	4cc\	.	.	.	4cc\	-ci-
!	!LO:LB:g=original	!	!	!	!	!	!
=73	=73	=73	=73	=73	=73	=73	=73
8r	4g/	4b-/	.	.	.	4b-\	-fi-
8GG/L	.	.	.	.	.	.	.
8BB-/	4G/	4g/	.	.	.	4g\	-xus
8D/	.	.	.	.	.	.	.
8BB-/	4r	4r	.	.	.	4r	.
8GG/J	.	.	.	.	.	.	.
!	!	!LO:LB:g=original	!	!	!	!	!
=74	=74	=74	=74	=74	=74	=74	=74
8r	8b-/L	8gg\L	.	8b-\	e-	8gg\L	e-
8GG/	8b-/J	8dd\J	.	8b-\	-ti-	8dd\J	-ti-
*tremolo	*	*	*	*	*	*	*
8GG/L	4b-/	4dd\	.	4b-\	-am	4dd\	-am
8GG/	.	.	.	.	.	.	.
8GG/	4b-/	4dd\	.	4b-\	pro	4dd\	pro
8GG/J	.	.	.	.	.	.	.
*Xtremolo	*	*	*	*	*	*	*
=75	=75	=75	=75	=75	=75	=75	=75
4FF#X/	4cc\	4ee-\	.	4cc\	no-	4ee-\	no-
4GG/	4b-\	4dd\	.	4b-\	-bis	4dd\	-bis
4D/	4r	4r	.	4r	.	4r	.
=76	=76	=76	=76	=76	=76	=76	=76
8r	4a/	4dd\	.	4a\	Sub	4cc\	Sub
8D\L	.	.	.	.	.	.	.
*	*tremolo	*tremolo	*	*	*	*	*
8F#X\	8a/L	8cc\L	.	4a\	pon-	4cc\	pon-
8A\J	8a/	8cc\	.	.	.	.	.
!	!	!	!	!LO:LB:g=original	!	!	!
8c\L	8a/	8cc\	.	8a\	-tio	8cc\L	-tio
8A\J	8a/J	8cc\J	.	8a\	pi-	8cc\J	pi-
*	*Xtremolo	*Xtremolo	*	*	*	*	*
!	!	!	!	!	!	!LO:PB:g=original	!
=77	=77	=77	=77	=77	=77	=77	=77
4F#X\	2cc\	2aa\	.	2cc\	-la-	2aa\	-la-
4D\	.	.	.	.	.	.	.
4D\	4a/	4cc\	.	4a\	-to	4cc\	-to
=78	=78	=78	=78	=78	=78	=78	=78
8r	4g/	4b-\	.	4g/	Sub	4b-\	Sub
8GG/L	.	.	.	.	.	.	.
*	*tremolo	*tremolo	*	*	*	*	*
8BB-/	8g/L	8b-\L	.	4g/	pon-	4b-\	pon-
8D/J	8g/	8b-\	.	.	.	.	.
!LO:TX:t=P:problem=mixed beam	!	!	!	!	!	!	!
8G\L	8g/	8b-\	.	8g/	-tio	8b-\	-tio
8GG/J	8g/J	8b-\J	.	8g/	pi-	8b-\	pi-
*	*Xtremolo	*Xtremolo	*	*	*	*	*
!LO:LB:g=original	!	!	!	!	!	!	!
=79	=79	=79	=79	=79	=79	=79	=79
4D\	2b-\	2gg\	.	2b-\	-la-	2gg\	-la-
4r	.	.	.	.	.	.	.
4C#X/	4g/	4b-\	.	4g\	-to	4b-\	-to
=80	=80	=80	=80	=80	=80	=80	=80
4D\	4g/	4b-/	.	4g/	paſ-	4b-\	paſ-
4DD/	4f#X/	4a/	.	4f#X/	-sus	4a\	-sus.
4r	4r	4r	.	4r	.	4r	.
=81	=81	=81	=81	=81	=81	=81	=81
!	!	!	!	!LO:TX:a:t=6.	!	!	!
4D\	2.d/	2dd\	.	0.r	.	2dd\	paſ-
4D\	.	.	.	.	.	.	.
4r	.	4dd\	.	.	.	4dd\	-sus.
=82	=82	=82	=82	=82	=82	=82	=82
*	*	*	*	*	*	*	*ij
4E-\	2e-/	2cc#X\	.	.	.	2cc#X\	paſ-
4E-\	.	.	.	.	.	.	.
4r	4e-/	4cc#\	.	.	.	4cc#\	-sus.
*	*	*	*	*	*	*	*Xij
=83	=83	=83	=83	=83	=83	=83	=83
4F#X\	2a/	2ccn\	.	.	.	2ccn\	paſ-
4F#\	.	.	.	.	.	.	.
4r	4a/	4cc\	.	.	.	4cc\	-sus
=84	=84	=84	=84	=84	=84	=84	=84
*	*	*	*	*	*	*	*ij
4r	2g/	2b-\	.	.	.	2b-\	paſ-
4G\	.	.	.	.	.	.	.
4GG/	4g/	4b-\	.	.	.	4b-\	-sus
*	*	*	*	*	*	*	*Xij
!	!LO:LB:g=original	!	!	!	!	!LO:LB:g=original	!
=85	=85	=85	=85	=85	=85	=85	=85
4G\	8cc\L	8ee-\L|	.	1.r	.	8ee-\	et
.	8b-\	8dd\|	.	.	.	8dd\	se-
4C#X/	8a\	8cc\|	.	.	.	8cc\	-pul-
.	8g\J	8b-\|	.	.	.	8b-\	.
4D/	8f#X/L	8a\|	.	.	.	8a\	.
.	8d/J	8f#X\J|	.	.	.	8f#X/	-tus
!	!	!LO:LB:g=original	!	!	!	!	!
=86	=86	=86	=86	=86	=86	=86	=86
!	!	!	!	!LO:TX:b:i:t=Et Resurexit\nVertatur	!	!	!
4GG/	4G/	4g/	.	.	.	4g/	eſt
4r;>	4r	4r	.	.	.	4r	.
4r	4r	4r;>	.	.	.	4r	.
!	!	!	!	!LO:PB:g=original	!	!	!
=87||	=87||	=87||	=87||	=87||	=87||	=87||	=87||
*k[b-]	*k[b-]	*k[b-]	*	*k[b-]	*	*k[b-]	*
*M2/2	*M2/2	*M2/2	*	*M2/2	*	*M2/2	*
*met(c|)	*met(c|)	*met(c|)	*	*met(c|)	*	*met(c|)	*
!LO:TX:b:i:t=Et Resurexit	!LO:TX:b:i:t=Et Resurecxit	!LO:TX:b:i:t=Et Resurexit	!	!	!	!	!
!LO:TX:a:t=P:problem=znak przykluczowy na wysokości B-	!	!	!	!	!	!	!
!LO:TX:t=P:problem=oznaczenie metryczne obrócone alla breve	!LO:TX:t=P:problem=oznaczenie metryczne obrócone alla breve	!LO:TX:t=P:problem=oznaczenie metryczne obrócone alla breve	!	!LO:TX:t=P:problem=oznaczenie metryczne obrócone alla breve	!	!LO:TX:t=P:problem=oznaczenie metryczne obrócone alla breve	!
!LO:TX:a:i:t=allo.	!LO:TX:a:i:t=allo.	!LO:TX:a:i:t=allabr	!	!LO:TX:a:i:t=allo	!	!LO:TX:a:i:t=allo.	!
4F\	2A/	2f/	.	2f/	Et	2f\	Et
4F\	.	.	.	.	.	.	.
4F\	4f/	4a/	.	4f/	Re-	4a\	Re-
!	!	!	!	!	!	!LO:SIC:v:l:s=-sur-	!
4F\	4a/	4cc/	.	4a/	-sur-	4cc\	-su-
=88	=88	=88	=88	=88	=88	=88	=88
4F\	2a/	2ff\	.	2a\	-re-	2ff\	-re-
4F\	.	.	.	.	.	.	.
4F\	2f/	2cc\	.	2a\	-xit	2cc\	-xit
4F\	.	.	.	.	.	.	.
!LO:LB:g=original	!	!	!	!	!	!	!
=89	=89	=89	=89	=89	=89	=89	=89
2BB-/	2b-\	2dd\	.	2b-\	ter-	2dd\	ter-
2BB-/	4dd\	4ff\	.	4dd\	-ti-	4ff\	-ti-
.	4b-\	4dd\	.	4b-\	-a	4dd\	-a
=90	=90	=90	=90	=90	=90	=90	=90
2BB-/	2b-\	2dd\	.	2b-\	di-	2dd\	di-
!	!	!	!	!LO:SIC:v:l:s=-e	!	!LO:SIC:v:l:s=-e	!
2F\	2a/	2cc\	.	2a\	-ae	2cc\	-ae
!	!	!	!	!	!	!LO:LB:g=original	!
=91	=91	=91	=91	=91	=91	=91	=91
2F\	4b-/	4dd\|	.	4b-\	Se-	4dd\	Se-
.	4a/	4cc\|	.	4a\	.	4cc\	.
2r	4g/	4b-\|	.	4g\	-cun-	4b-\	-cun-
.	4f/	4a\|	.	4f\	-dum	4a\	-dum
=92	=92	=92	=92	=92	=92	=92	=92
*	*	*	*	*	*ij	*	*ij
2E\	4d/	4b-/|	.	4g/	Se-	4b-\	Se-
.	4c/	4a/|	.	4f/	.	4a\	.
2r	4B-/	4g/|	.	4e/	-cun-	4g\	-cun-
.	4A/	4f/|	.	4d/	-dum	4f\	-dum
*	*	*	*	*	*Xij	*	*Xij
=93	=93	=93	=93	=93	=93	=93	=93
4C/	2e/	2cc\	.	2e/	Scrip-	2cc\	Scrip-
4c\	.	.	.	.	.	.	.
4G\	2e/	2cc\	.	2e/	-tu-	2cc\	-tu-
4E\	.	.	.	.	.	.	.
!	!	!	!	!LO:LB:g=original	!	!	!
=94	=94	=94	=94	=94	=94	=94	=94
2C/	2e/	2cc\	.	2e/	-ras	2cc\	-ras
2r	2rg	2r	.	2re	.	2r	.
!	!LO:LB:g=original	!	!	!	!	!	!
=95	=95	=95	=95	=95	=95	=95	=95
*^	*	*	*	*	*	*	*
4c/	2G\	2g/	2b-/	.	2g/	et	2b-\	et
4c/	.	.	.	.	.	.	.	.
4c/	2E\	2e/	2g/	.	2e/	a-	2g\	a-
4c/	.	.	.	.	.	.	.	.
=96	=96	=96	=96	=96	=96	=96	=96	=96
4c/	2F\	2f/	2a/	.	2f/	-ſcen-	2a\	-scen-
4c/	.	.	.	.	.	.	.	.
4c/	2A\	2a/	2cc/	.	2a\	-dit	2cc\	-dit
4c/	.	.	.	.	.	.	.	.
=97	=97	=97	=97	=97	=97	=97	=97	=97
4c/	2G\	2g/	2b-/	.	2g/	in	2b-\	in
4c/	.	.	.	.	.	.	.	.
4c/	2E\	2e/	2g/	.	2e/	Cae-	2g\	Cae-
4c/	.	.	.	.	.	.	.	.
!	!	!	!LO:LB:g=original	!	!	!	!	!
=98	=98	=98	=98	=98	=98	=98	=98	=98
!	!	!	!	!	!	!	!LO:TX:a:i:t=a	!
4c/	2F\	2f/	2a/	.	2f/	-lum	2a\	-lum
4c/	.	.	.	.	.	.	.	.
4c/	2r	2rg	2rg	.	2r	.	2r	.
4c/	.	.	.	.	.	.	.	.
!	!	!	!	!	!	!	!LO:LB:g=original	!
=99	=99	=99	=99	=99	=99	=99	=99	=99
4c/	2G\	2g/	2b-/	.	2g/	Se-	2b-\	ſe-
4c/	.	.	.	.	.	.	.	.
4c/	4E\	4e/	4g/	.	4e/	-det	4g\	-det
4c/	4G\	4g/	4b-/	.	4g/	ad	4b-\	ad
=100	=100	=100	=100	=100	=100	=100	=100	=100
4c/	2F\	2f/	2a/	.	2f/	dex-	2a\	dex-
4c/	.	.	.	.	.	.	.	.
!	!	!	!	!	!LO:SIC:v:l:s=-te-	!	!	!
4c/	4F\	4f/	4a/	.	4f/	-et-	4a\	-tram
4c/	4A\	4a/	4cc/	.	4a/	-ram	4cc\	.
=101	=101	=101	=101	=101	=101	=101	=101	=101
4c/	2G\	2g/	2b-/	.	2g/	pa-	2b-\	pa-
4c/	.	.	.	.	.	.	.	.
4c/	2E\	2e/	2g/	.	2e/	.	2g\	.
4c/	.	.	.	.	.	.	.	.
!LO:LB:g=original	!LO:LB:g=original	!	!	!	!	!	!	!
=102	=102	=102	=102	=102	=102	=102	=102	=102
4c/	2F\	2f/	2a/	.	2f/	-tris	2a\	-tris
4c/	.	.	.	.	.	.	.	.
4c/	2r	2rg	2rg	.	2re	.	2r	.
4c/	.	.	.	.	.	.	.	.
*v	*v	*	*	*	*	*	*	*
=103	=103	=103	=103	=103	=103	=103	=103
!	!	!	!	!LO:TX:a:t=10.	!	!LO:TX:a:t=10.	!
4r	4a/	4cc\	.	00r	.	00r	.
4F\	4a/	4dd\	.	.	.	.	.
4A\	4a/	4cc\	.	.	.	.	.
4F\	4a/	4r	.	.	.	.	.
=104	=104	=104	=104	=104	=104	=104	=104
4F\	4a/	4r	.	.	.	.	.
4F\	4a/	4cc\	.	.	.	.	.
4A\	4a/	4aa\	.	.	.	.	.
4F\	4a/	4ff\	.	.	.	.	.
=105	=105	=105	=105	=105	=105	=105	=105
4r	4b-/	4ff\	.	.	.	.	.
4C/	4b-/	4ee\	.	.	.	.	.
4E/	4b-/	4ee\	.	.	.	.	.
4C/	4b-/	4r	.	.	.	.	.
=106	=106	=106	=106	=106	=106	=106	=106
4C/	4b-/	4r	.	.	.	.	.
4C/	4b-/	4bb-\	.	.	.	.	.
4E/	4b-/	4gg\	.	.	.	.	.
4C/	4b-/	4ee\	.	.	.	.	.
!	!LO:LB:g=original	!	!	!	!	!	!
=107	=107	=107	=107	=107	=107	=107	=107
4r	4a/	4ff\	.	00r	.	00r	.
4F\	4a/	4cc\	.	.	.	.	.
4A\	4a/	2cc\	.	.	.	.	.
4F\	4a/	.	.	.	.	.	.
=108	=108	=108	=108	=108	=108	=108	=108
4F\	4a/	4r	.	.	.	.	.
4F\	4a/	4cc\	.	.	.	.	.
4A\	4a/	4aa\	.	.	.	.	.
4F\	4a/	4ff\	.	.	.	.	.
=109	=109	=109	=109	=109	=109	=109	=109
4r	4b-/	4ff\	.	.	.	.	.
4C/	4b-/	4ee\	.	.	.	.	.
4E/	4b-/	2ee\	.	.	.	.	.
4C/	4b-/	.	.	.	.	.	.
!	!	!LO:LB:g=original	!	!	!	!	!
=110	=110	=110	=110	=110	=110	=110	=110
!	!LO:TX:t=P:problem=fragment oznaczony znakiem repetycji	!	!	!	!	!	!
4C/	4b-/yy	4r	.	.	.	.	.
4C/	4b-/yy	4bb-\	.	.	.	.	.
4E/	4b-/yy	4gg\	.	.	.	.	.
4C/	4b-/yy	4ee\	.	.	.	.	.
=111	=111	=111	=111	=111	=111	=111	=111
8F\L	2a/	2ff\	.	0r	.	0r	.
8A\	.	.	.	.	.	.	.
8c\	.	.	.	.	.	.	.
8A\J	.	.	.	.	.	.	.
8F\L	2a/	2ff\	.	.	.	.	.
8A\	.	.	.	.	.	.	.
8c\	.	.	.	.	.	.	.
8A\J	.	.	.	.	.	.	.
=112	=112	=112	=112	=112	=112	=112	=112
2F\	2a/	2ff\	.	.	.	.	.
2r	2rg	2r	.	.	.	.	.
!LO:LB:g=original	!	!	!	!	!	!	!
=113	=113	=113	=113	=113	=113	=113	=113
2F\	2a/	2ff\	.	2f/	Et	2ff\	Et
2F\	2A/	2f/	.	2f/	vi-	2f/	vi-
!	!	!	!	!LO:LB:g=original	!	!	!
=114	=114	=114	=114	=114	=114	=114	=114
2F\	2A/	2f/	.	2f/	-tam	2f/	-tam
2r	4A/	4f/	.	4f/	ven-	4f/	ven-
.	4c/	4a/	.	4a/	.	4a/	.
=115	=115	=115	=115	=115	=115	=115	=115
2rBB	4f/	4a/	.	4f/	-tu-	4a\	-tu-
.	4e/	4g/	.	4e/	.	4g\	.
2C/	2e/	2g/	.	2e/	-ri	2g\	-ri
=116	=116	=116	=116	=116	=116	=116	=116
2rBB	4g/	4b-/	.	4g/	Sae-	4b-\	Sae-
.	4f/	4a/	.	4f/	-cu-	4a\	-cu-
2F\	2f/	2a/	.	2f/	-li	2a\	-li
!	!	!	!	!	!	!LO:LB:g=original	!
=117	=117	=117	=117	=117	=117	=117	=117
2F\	2a/	2ff\	.	2a\	Et	2ff\	Et
2F\	2f/	2a/	.	2f/	vi-	2a\	vi-
=118	=118	=118	=118	=118	=118	=118	=118
2F\	2f/	2a/	.	2f/	-tam	2a\	-tam
2r	4f/	4a/	.	4f/	ven-	4a\	ven-
.	4g/	4b-/	.	4g/	.	4b-\	.
=119	=119	=119	=119	=119	=119	=119	=119
2rBB	4a/	4cc\	.	4a\	-tu-	4cc\	-tu-
.	4g/	4b-\	.	4g\	.	4b-\	.
2C/	2g/	2b-\	.	2g\	-ri	2b-\	-ri
!	!LO:LB:g=original	!	!	!	!	!	!
=120	=120	=120	=120	=120	=120	=120	=120
2rBB	4b-\	4dd\	.	4b-\	Sae-	4dd\	Sae-
.	4a\	4cc\	.	4a\	-cu-	4cc\	-cu-
2F\	2a/	2cc\	.	2a\	-li	2cc\	-li
!	!	!LO:LB:g=original	!	!LO:LB:g=original	!	!	!
=121	=121	=121	=121	=121	=121	=121	=121
2F\	4a/	4cc\	.	4a\	a-	4cc\	A-
.	4g/	4b-\	.	4g\	.	4b-\	.
2F\	4f/	4a\	.	4f\	.	4a\	.
.	4g/	4b-\	.	4g\	.	4b-\	.
=122	=122	=122	=122	=122	=122	=122	=122
2F\	2a/	2cc\	.	2a\	.	2cc\	.
2F\	2b-/	2dd\	.	2b-\	-men	2dd\	-men
=123	=123	=123	=123	=123	=123	=123	=123
4F\	4a\	4cc\	.	4cc\	a-	4cc\	a-
4r	4gg\	4bb-\	.	4gg\	.	4bb-\	.
2r	4gg\	4bb-\	.	4gg\	.	4bb-\	.
.	4ee\	4gg\	.	4ee\	-men	4gg\	-men
!	!	!	!	!	!	!LO:LB:g=original	!
=124	=124	=124	=124	=124	=124	=124	=124
!LO:TX:a:t=1	!	!	!	!	!	!	!
1r	(<4b-/	4gg\	.	4b-\	a-	4gg\	a-
.	4g/	4ee\	.	4g\	.	4ee\	.
.	4g/	4ee\	.	4g\	.	4ee\	.
.	4e/)	4cc\	.	4e\	-men	4cc\	-men
=125	=125	=125	=125	=125	=125	=125	=125
2F\	4a/	4cc\	.	4a\	a-	4cc\	a-
.	4g/	4b-\	.	4g\	.	4b-\	.
2F\	4f/	4a\	.	4f\	.	4a\	.
.	4g/	4b-\	.	4g\	-men	4b-\	.
=126	=126	=126	=126	=126	=126	=126	=126
2F\	2a/	2cc\	.	2a\	a-	2cc\	.
2F\	2b-/	2dd\	.	2b-\	-men	2dd\	-men
!LO:LB:g=original	!	!	!	!	!	!	!
=127	=127	=127	=127	=127	=127	=127	=127
4F\	(>4a\	4cc\	.	4cc\	a-	4cc\	a-
4r	4gg\	4bb-\	.	4gg\	.	4bb-\	.
2r	4gg\	4bb-\	.	4gg\	.	4bb-\	.
.	4ee\)	4gg\	.	4ee\	-men	4gg\	-men
!	!	!	!	!LO:LB:g=original	!	!	!
=128	=128	=128	=128	=128	=128	=128	=128
!LO:TX:a:t=1	!	!	!	!	!	!	!
1r	(<4b-/	4gg\	.	4b-\	a-	4gg\	a-
.	4g/	4ee\	.	4g\	.	4ee\	.
.	4g/	4ee\	.	4g\	.	4ee\	.
.	4e/)	4cc\	.	4e/	-men	4cc\	-men
=129	=129	=129	=129	=129	=129	=129	=129
2C/	2g/	2ee\	.	2g\	a-	2ee\	a-
2F/	2a/	2ff\	.	2a\	-men	2ff\	-men
==	==	==	==	==	==	==	==
*-	*-	*-	*-	*-	*-	*-	*-
!!!system-decoration: [(g1)][(g2)][(s5)]
!!!RDF**kern: | = vertical stroke
!!!RDF**kern: > = above
!!!RDF**kern: < = below
!!!ENC: Andrzej Kubiczek
!!!END: 2021-02-02
!!!EED: Antoni Szymański
!!!EEV: 2022-03-21
